images/flag.svg

<svg width="14" height="14" viewBox="0 0 14 14" fill="none" xmlns="http://www.w3.org/2000/svg">
<path fill-rule="evenodd" clip-rule="evenodd" d="M0.233233 0.0706541C0.175565 0.109497 0.0995193 0.190431 0.0642 0.250523L0 0.359801V7.0025V13.6452L0.0781402 13.7606C0.121117 13.824 0.213479 13.9038 0.283368 13.938C0.353256 13.9721 0.450775 14 0.500097 14C0.549419 14 0.649939 13.9709 0.723484 13.9353C0.801968 13.8973 0.886703 13.8231 0.92868 13.7556L1.00019 13.6406L1.00879 11.3204L1.01735 9.00016H7.30482C13.5445 9.00016 13.5932 8.99969 13.7193 8.93719C13.7892 8.90256 13.8729 8.83775 13.9052 8.79313C13.9375 8.74851 13.9756 8.66082 13.9899 8.59826C14.0054 8.53045 14.0028 8.43408 13.9835 8.35955C13.9555 8.25159 13.6971 7.98028 12.0863 6.36743L10.2215 4.5003L12.0696 2.64879C13.086 1.63048 13.935 0.763476 13.956 0.722134C13.9772 0.680822 13.9952 0.582388 13.9962 0.503391C13.9971 0.424424 13.9746 0.315209 13.9461 0.260711C13.9176 0.206212 13.8483 0.128871 13.7922 0.0888409L13.6902 0.016062L7.01411 0.008031L0.338066 0L0.233233 0.0706541ZM10.6681 2.61754C9.2387 4.04912 9.04941 4.24993 9.01856 4.36749C8.99287 4.46536 8.99293 4.53523 9.01878 4.63311C9.04979 4.75054 9.24079 4.95322 10.668 6.38305L12.2823 8.00019H6.64904H1.01582V4.5003V1.00041H6.64932H12.2828L10.6681 2.61754Z" fill="white"/>
<path d="M10.6681 2.61754C9.2387 4.04912 9.04941 4.24993 9.01856 4.36749C8.99287 4.46536 8.99293 4.53523 9.01878 4.63311C9.04979 4.75054 9.24079 4.95322 10.668 6.38305L12.2823 8.00019H6.64904H1.01582V4.5003V1.00041H6.64932H12.2828L10.6681 2.61754Z" fill="white"/>
</svg>

<svg width="14" height="14" fill="none" xmlns="http://www.w3.org/2000/svg"><path fill-rule="evenodd" clip-rule="evenodd" d="M.233.07a.664.664 0 0 0-.169.18L0 .36v13.285l.078.116a.625.625 0 0 0 .205.177A.63.63 0 0 0 .5 14c.05 0 .15-.03.223-.065a.545.545 0 0 0 .206-.18L1 13.642l.009-2.32L1.017 9h6.288c6.24 0 6.288-.001 6.414-.064.07-.034.154-.1.186-.144a.64.64 0 0 0 .085-.195.555.555 0 0 0-.007-.238c-.027-.108-.286-.38-1.897-1.993L10.222 4.5l1.848-1.85C13.086 1.63 13.935.763 13.956.722a.615.615 0 0 0-.01-.461.593.593 0 0 0-.154-.172L13.69.016 7.014.008.338 0 .233.07Zm10.435 2.548c-1.43 1.431-1.619 1.632-1.65 1.75a.466.466 0 0 0 0 .265c.032.118.223.32 1.65 1.75L12.282 8H1.016V1h11.267l-1.615 1.618Z" fill="#fff"/><path d="M10.668 2.618c-1.43 1.431-1.619 1.632-1.65 1.75a.466.466 0 0 0 0 .265c.032.118.223.32 1.65 1.75L12.282 8H1.016V1h11.267l-1.615 1.618Z" fill="#fff"/></svg>
